X:21
T:Denis Murphy's Slide
M:12/8
Z:Boston
Z: From the playing of Padraig O'Keefe
R:slide
E:12
K:D
dB|A2 D FED F2 AA2 f|gfe fed e2d B2d|A2D FED F2 AA2 f|a2f e2f d3 d2:|
A|d2e f2a a2f fef|g3 faf e2d BAB|d2e f2f gfe f2f|a2f e2f d3 d2A|
d2e f2f gfe f2f|gfe fed e2d BAB|d2e f2f gfe f2f|a2f e2f d3 d2||
<end>
<start>
